!!!COM: Anon.
!!!OTL: O sol quando da/ enclina
!!!OTL: Romanceiro Folclorico do Brasil
!!!CNT: Brasil
!!!OCY: Brasil
!!!ODT: <1971///
!!!PSR: Irmaos Vitale
!!!PSP: Sao Paulo, Brasil
!!!PDT: 1952///
!!!PPE: Rossini Tavares de Lima
!!!PPG: pages 72-73
!! Romance: Conde da Alemanha
!! Place: Santos, Sao Paulo, Brasil
**kern
*clefG2
*k[b-e-a-]
*M3/4
*MM112
8g
=
4cc
8g
8f
8e-
8g
=
4.f
8d
8r
4g
=
4bn
12e-
12e-
12e-
8d
8f
=
4.e-
8c
4r
=
4r
8e-
8f
8g
8cc
=
8cc
8b-
4a-
8f
8e-
=
4d
8Bn
8c
8d
8B
=
4c
4c
==
*-
